icons/circle/48/gweled.svg

<svg xmlns="http://www.w3.org/2000/svg" xmlns:xlink="http://www.w3.org/1999/xlink" viewBox="0 0 48 48">
 <defs>
  <linearGradient id="linearGradient3764" x1="1" x2="47" gradientUnits="userSpaceOnUse" gradientTransform="matrix(0,-1,1,0,-1.5e-6,47.999998)">
   <stop style="stop-color:#bad1d6;stop-opacity:1"/>
   <stop offset="1" style="stop-color:#c6d9dd;stop-opacity:1"/>
  </linearGradient>
  <linearGradient id="linear0" gradientUnits="userSpaceOnUse" x1="243.07" y1="568.62" x2="319.35" y2="382.07" gradientTransform="matrix(0.0412087,0,0,0.0570472,5.02324,-1.616067)">
   <stop style="stop-color:#00629c;stop-opacity:1"/>
   <stop offset="1" style="stop-color:#92b9c6;stop-opacity:0.392"/>
  </linearGradient>
  <linearGradient id="linear1" gradientUnits="userSpaceOnUse" x1="239.5" y1="372.62" x2="677.44" y2="610.43" gradientTransform="matrix(0.0356102,0,0,0.0660118,5.02324,-1.616067)">
   <stop style="stop-color:#ececec;stop-opacity:0.706"/>
   <stop offset="1" style="stop-color:#2db2c8;stop-opacity:1"/>
  </linearGradient>
  <linearGradient id="linear2" gradientUnits="userSpaceOnUse" x1="871.16" y1="413.99" x2="768.11" y2="573.2" gradientTransform="matrix(0.0404291,0,0,0.0581102,5.02324,-1.616067)" xlink:href="#linear1"/>
  <linearGradient id="linear3" gradientUnits="userSpaceOnUse" x1="175.09" y1="847.02" x2="342.98" y2="901.72" gradientTransform="matrix(0.105803,0,0,0.0222165,5.02324,-1.616067)" xlink:href="#linear1"/>
  <linearGradient y2="610.43" x2="677.44" y1="372.62" x1="239.5" gradientTransform="matrix(0.0356102,0,0,0.0660118,5.02324,-1.616067)" gradientUnits="userSpaceOnUse" id="linearGradient3475" xlink:href="#linear1"/>
 </defs>
 <g>
  <path d="m 36.31 5 c 5.859 4.062 9.688 10.831 9.688 18.5 c 0 12.426 -10.07 22.5 -22.5 22.5 c -7.669 0 -14.438 -3.828 -18.5 -9.688 c 1.037 1.822 2.306 3.499 3.781 4.969 c 4.085 3.712 9.514 5.969 15.469 5.969 c 12.703 0 23 -10.298 23 -23 c 0 -5.954 -2.256 -11.384 -5.969 -15.469 c -1.469 -1.475 -3.147 -2.744 -4.969 -3.781 z m 4.969 3.781 c 3.854 4.113 6.219 9.637 6.219 15.719 c 0 12.703 -10.297 23 -23 23 c -6.081 0 -11.606 -2.364 -15.719 -6.219 c 4.16 4.144 9.883 6.719 16.219 6.719 c 12.703 0 23 -10.298 23 -23 c 0 -6.335 -2.575 -12.06 -6.719 -16.219 z" style="opacity:0.05"/>
  <path d="m 41.28 8.781 c 3.712 4.085 5.969 9.514 5.969 15.469 c 0 12.703 -10.297 23 -23 23 c -5.954 0 -11.384 -2.256 -15.469 -5.969 c 4.113 3.854 9.637 6.219 15.719 6.219 c 12.703 0 23 -10.298 23 -23 c 0 -6.081 -2.364 -11.606 -6.219 -15.719 z" style="opacity:0.1"/>
  <path d="m 31.25 2.375 c 8.615 3.154 14.75 11.417 14.75 21.13 c 0 12.426 -10.07 22.5 -22.5 22.5 c -9.708 0 -17.971 -6.135 -21.12 -14.75 a 23 23 0 0 0 44.875 -7 a 23 23 0 0 0 -16 -21.875 z" style="opacity:0.2"/>
 </g>
 <g>
  <path d="m 24 1 c 12.703 0 23 10.297 23 23 c 0 12.703 -10.297 23 -23 23 -12.703 0 -23 -10.297 -23 -23 0 -12.703 10.297 -23 23 -23 z" style="fill:url(#linearGradient3764);fill-opacity:1"/>
 </g>
 <path d="m 17.5,14 15,0 L 38,20 25,38 12,20 Z" style="fill:#000;opacity:0.1;fill-opacity:1;stroke:none;fill-rule:evenodd"/>
 <g>
  <path d="m 40.03 7.531 c 3.712 4.084 5.969 9.514 5.969 15.469 0 12.703 -10.297 23 -23 23 c -5.954 0 -11.384 -2.256 -15.469 -5.969 4.178 4.291 10.01 6.969 16.469 6.969 c 12.703 0 23 -10.298 23 -23 0 -6.462 -2.677 -12.291 -6.969 -16.469 z" style="opacity:0.1"/>
 </g>
 <g>
  <path d="m 16.5,13 15,0 L 37,19 24,37 11,19 Z" style="fill:#2a2a2a;fill-opacity:1;stroke:none;fill-rule:evenodd"/>
  <path d="m 17.5,14.5 13,0 L 35,19 24,34.5 13,19 Z" style="fill:#25acba;fill-opacity:1;stroke:none;fill-rule:evenodd"/>
  <g>
   <g>
    <!-- color: #c6d9dd -->
    <g>
     <path d="M 24,34.5 35,19 24,19" style="fill:#0a62a1;fill-opacity:1;stroke:none;fill-rule:evenodd"/>
     <path d="M 24,34.495 13,19 24,19" style="fill:url(#linear0);stroke:none;fill-rule:evenodd"/>
     <path d="M 24,34.5 19.16,20.227 16.33,23.7" style="fill:url(#linearGradient3475);stroke:none;fill-rule:evenodd"/>
     <path d="M 29.363,19.512 35,19 24,34.5" style="fill:url(#linear2);stroke:none;fill-rule:evenodd"/>
     <path d="M 13.94,18.6 34.2,19 30.65,14.7 17.83,15.098" style="fill:url(#linear3);stroke:none;fill-rule:evenodd"/>
    </g>
   </g>
  </g>
 </g>
</svg>

<svg xmlns="http://www.w3.org/2000/svg" xmlns:xlink="http://www.w3.org/1999/xlink" viewBox="0 0 48 48">
  <defs>
    <linearGradient id="b" x1="1" x2="47" gradientUnits="userSpaceOnUse" gradientTransform="rotate(-90 24 24)">
      <stop stop-color="#bad1d6"/>
      <stop offset="1" stop-color="#c6d9dd"/>
    </linearGradient>
    <linearGradient id="c" gradientUnits="userSpaceOnUse" x1="243.07" y1="568.62" x2="319.35" y2="382.07" gradientTransform="matrix(.0412 0 0 .05705 5.023 -1.616)">
      <stop stop-color="#00629c"/>
      <stop offset="1" stop-color="#92b9c6" stop-opacity=".392"/>
    </linearGradient>
    <linearGradient id="a" gradientUnits="userSpaceOnUse" x1="239.5" y1="372.62" x2="677.44" y2="610.43" gradientTransform="matrix(.03561 0 0 .06601 5.023 -1.616)">
      <stop stop-color="#ececec" stop-opacity=".706"/>
      <stop offset="1" stop-color="#2db2c8"/>
    </linearGradient>
    <linearGradient id="e" gradientUnits="userSpaceOnUse" x1="871.16" y1="413.99" x2="768.11" y2="573.2" gradientTransform="matrix(.04043 0 0 .05811 5.023 -1.616)" xlink:href="#a"/>
    <linearGradient id="f" gradientUnits="userSpaceOnUse" x1="175.09" y1="847.02" x2="342.98" y2="901.72" gradientTransform="matrix(.1058 0 0 .02222 5.023 -1.616)" xlink:href="#a"/>
    <linearGradient y2="610.43" x2="677.44" y1="372.62" x1="239.5" gradientTransform="matrix(.03561 0 0 .06601 5.023 -1.616)" gradientUnits="userSpaceOnUse" id="d" xlink:href="#a"/>
  </defs>
  <path d="M36.31 5c5.859 4.062 9.688 10.831 9.688 18.5 0 12.426-10.07 22.5-22.5 22.5-7.669 0-14.438-3.828-18.5-9.688a23.24 23.24 0 0 0 3.781 4.969 22.923 22.923 0 0 0 15.469 5.969c12.703 0 23-10.298 23-23a22.92 22.92 0 0 0-5.969-15.469A23.216 23.216 0 0 0 36.31 5zm4.969 3.781A22.911 22.911 0 0 1 47.498 24.5c0 12.703-10.297 23-23 23a22.909 22.909 0 0 1-15.719-6.219C12.939 45.425 18.662 48 24.998 48c12.703 0 23-10.298 23-23 0-6.335-2.575-12.06-6.719-16.219z" opacity=".05"/>
  <path d="M41.28 8.781a22.923 22.923 0 0 1 5.969 15.469c0 12.703-10.297 23-23 23A22.92 22.92 0 0 1 8.78 41.281 22.911 22.911 0 0 0 24.499 47.5c12.703 0 23-10.298 23-23A22.909 22.909 0 0 0 41.28 8.781z" opacity=".1"/>
  <path d="M31.25 2.375C39.865 5.529 46 13.792 46 23.505c0 12.426-10.07 22.5-22.5 22.5-9.708 0-17.971-6.135-21.12-14.75a23 23 0 0 0 44.875-7 23 23 0 0 0-16-21.875z" opacity=".2"/>
  <path d="M24 1c12.703 0 23 10.297 23 23S36.703 47 24 47 1 36.703 1 24 11.297 1 24 1z" fill="url(#b)"/>
  <path d="M17.5 14h15l5.5 6-13 18-13-18z" opacity=".1" fill-rule="evenodd"/>
  <g>
    <path d="M40.03 7.531A22.922 22.922 0 0 1 45.999 23c0 12.703-10.297 23-23 23A22.92 22.92 0 0 1 7.53 40.031C11.708 44.322 17.54 47 23.999 47c12.703 0 23-10.298 23-23 0-6.462-2.677-12.291-6.969-16.469z" opacity=".1"/>
  </g>
  <g>
    <path d="M16.5 13h15l5.5 6-13 18-13-18z" fill="#2a2a2a" fill-rule="evenodd"/>
    <path d="M17.5 14.5h13L35 19 24 34.5 13 19z" fill="#25acba" fill-rule="evenodd"/>
    <g fill-rule="evenodd">
      <path d="M24 34.5L35 19H24" fill="#0a62a1"/>
      <path d="M24 34.495L13 19h11" fill="url(#c)"/>
      <path d="M24 34.5l-4.84-14.273-2.83 3.473" fill="url(#d)"/>
      <path d="M29.363 19.512L35 19 24 34.5" fill="url(#e)"/>
      <path d="M13.94 18.6l20.26.4-3.55-4.3-12.82.398" fill="url(#f)"/>
    </g>
  </g>
</svg>
